X:1
T:Title
%%score { ( 1 4 5 ) | ( 2 3 ) }
L:1/8
M:3/4
K:Db
V:1 treble nm="Grand Piano"
V:4 treble 
V:5 treble 
V:2 bass 
V:3 bass 
V:1
 z2 z2 z[Q:1/4=100] [FA] | [DFd]>[Fc] [B,FB]3 [FA] | [A,GA]>[GB] z2 z [Gc] | %3
 [Ece]>[Bd] [CAc]3 [GB] |[M:5/8] [A,FA]>[EG] [F,DF]3 |[M:1/8] [FA] | %6
[M:3/4] [DFd]>[Fc] [B,FB]3 [FA] | [CAc]>[Bd] [Ece]3 [df] | [Ece]>[_c=d] [E=ce]3 [Ac] | %9
[M:5/8] [DBd]>[Ac] [CAc]3 |[M:1/8] [CGA] |[M:3/4] [DFA]>[Fd] [Fd]3 [Ac] | [Ac]>B B3 B | %13
 B>c c3 [CGB] | [GB]>[FA] [FA]3 [FA] | [FA]>[Fd] [Fd]3 [Ac] | [Ac]>B B3 B | [=GB]>[Gc] [Gd]3 [Ge] | %18
[M:5/8] [CGe]- [CGe]3 z |[M:1/8] [CGA] |[M:3/4] [DFA]>[Fd] [Fd]3 [Ac] | [Ac]>B B3 B | %22
 B>c c3 [CGB] | [GB]>[FA] [FA]3 [FA] | [FA]>[Fd] [Af]3 [DAd] | [DBd]>[DAc] [DGB]3 [D_Fd] | %26
 [DFd]2 z [DF] [A,CF]>[K:bass][G,CE] |[M:5/8] [F,D]- [F,D]3 z |] %28
V:2
 z2 z2 z A, | z z/ C/ D,2 z A, | z z/ B,/ [E,A,]2 z C | z z/ D/ A,2 z B, |[M:5/8] D,2 z z2 | %5
[M:1/8] A, |[M:3/4] z z/ C/ D,2 z A, | z z/ D/ A,2 z F | z z/ =D/ E,,2 z C |[M:5/8] z z/ C/ A,,3 | %10
[M:1/8] A,, |[M:3/4] D,>[D,A,] [D,A,]3 [F,D] | [G,D]>[K:treble][G,DG] [G,DG]3 [G,DG] | %13
 [A,CG]>[A,EG] [A,EG]3[K:bass] A,, | [D,D]>[D,D] [D,D]3 [D,D] | [D,D]>[D,A,] [D,A,]3 [F,D] | %16
 [G,D]>[G,DG] [G,DG]3 [G,DG] | [E,D]>[E,C] [E,B,]3 [E,D] |[M:5/8] A,,- A,,3 z |[M:1/8] A,, | %20
[M:3/4] D,>[D,A,] [D,A,]3 [F,D] | [G,D]>[K:treble][G,DG] [G,DG]3 [G,DG] | %22
 [A,CG]>[A,EG] [A,EG]3[K:bass] A,, | [D,D]>[D,D] [D,D]3 [D,D] | [D,D]>[D,A,] [D,D]3 F, | %25
 G,>G, G,3 =G, | A,2 z A, A,,>A,, |[M:5/8] D,- D,3 z |] %28
V:3
 x6 | D,,2 z2 D,2 | E,,2 z2 E,2 | A,,2 z2 A,2 |[M:5/8] z z/ G,/ D,,2 D, |[M:1/8] x | %6
[M:3/4] D,,2 z2 D,2 | A,,2 z2 A,2 | E,2 z2 E,2 |[M:5/8] E,,2 z z2 |[M:1/8] x |[M:3/4] x6 | %12
 x3/2[K:treble] x9/2 | x5[K:bass] x | x6 | x6 | x6 | x6 |[M:5/8] x5 |[M:1/8] x |[M:3/4] x6 | %21
 x3/2[K:treble] x9/2 | x5[K:bass] x | x6 | x6 | x6 | x6 |[M:5/8] x5 |] %28
V:4
 x6 | x6 | z2 [CGc]4 | x6 |[M:5/8] x5 |[M:1/8] x |[M:3/4] x6 | x6 | x6 |[M:5/8] x5 |[M:1/8] x | %11
[M:3/4] x6 | x6 | x6 | x6 | x6 | x6 | x6 |[M:5/8] x5 |[M:1/8] x |[M:3/4] x6 | x6 | x6 | x6 | x6 | %25
 x6 | x11/2[K:bass] x/ |[M:5/8] x5 |] %28
V:5
 x6 | x6 | z2 z2 A,2 | x6 |[M:5/8] x5 |[M:1/8] x |[M:3/4] x6 | x6 | x6 |[M:5/8] x5 |[M:1/8] x | %11
[M:3/4] x6 | x6 | x6 | x6 | x6 | x6 | x6 |[M:5/8] x5 |[M:1/8] x |[M:3/4] x6 | x6 | x6 | x6 | x6 | %25
 x6 | x11/2[K:bass] x/ |[M:5/8] x5 |] %28

